X: 6
T: Famene un poco
N: Derived from Jap3006-Famene_un_poco.krn
C: Jean Japart
%%abc-version 2.0
%%abcx-abcm2ps-target-version 5.9.1 (29 Sep 2008)
%%abc-creator hum2abc beta
%%abcx-conversion-date 2019/02/16 20:40:05
%%abc-edited-by Jesse Rodin
%%abc-edited-by Chris Gage 09-04-2013
%%abcx-initial-encoding-date 2013/10/23/
%%humdrum-veritas 455688947
%%humdrum-veritas-data 4042850954
%%linebreak <none>
%%barnumbers 0
L: 1/4
M: 2/1
Q: 1/2=120
%%staves [1 2 3 4]
V: 1 clef=treble
V: 2 clef=treble-8
V: 3 clef=treble-8
V: 4 clef=bass
K: C
[V:1] z8 | 
[V:2] z4d4- | 
[V:3] z8 | 
[V:4] D8 | 
[V:1] z8 | 
[V:2] d4d4 | 
[V:3] d8 | 
[V:4] D4D4 | 
[V:1] d8 | 
[V:2] d4G4- | 
[V:3] d4d4 | 
[V:4] G,8 | 
[V:1] d4d4 | 
[V:2] G4G2A2 | 
[V:3] G8 | 
[V:4] G,4D4 | 
[V:1] G4G4- | 
[V:2] B6c2 | 
[V:3] G6A2 | 
[V:4] D6C2 | 
[V:1] G4A4 | 
[V:2] d4e2f2 | 
[V:3] B4c4 | 
[V:4] B,4A,4 | 
[V:1] B4c4 | 
[V:2] g2g4^f2 | 
[V:3] B4A4 | 
[V:4] G,2D2C3D | 
[V:1] B3cB2A2 | 
[V:2] g6fe | 
[V:3] G8- | 
[V:4] E4D4 | 
[V:1] G8 | 
[V:2] d4z2d2 | 
[V:3] G8 | 
[V:4] z4D4 | 
[V:1] G4z4 | 
[V:2] d2d2G4 | 
[V:3] d8 | 
[V:4] D4D4 | 
[V:1] d8 | 
[V:2] G2G2d2d2 | 
[V:3] d4d4 | 
[V:4] G,4G,4 | 
[V:1] d4d4 | 
[V:2] d2d2G2g2- | 
[V:3] G8 | 
[V:4] z4D4 | 
[V:1] G2B2A2d2- | 
[V:2] g2fef4 | 
[V:3] G4d4 | 
[V:4] E2D3CB,A, | 
[V:1] dcA3GFE | 
[V:2] z8 | 
[V:3] d6c2 | 
[V:4] G,2F,3G,A,2 | 
[V:1] D2G4^F2 | 
[V:2] z4d4- | 
[V:3] B4A4 | 
[V:4] B,2G,2D,4 | 
[V:1] G4d4- | 
[V:2] d2e2d2g2- | 
[V:3] G8 | 
[V:4] z8 | 
[V:1] d2e4dc | 
[V:2] g2g2g4 | 
[V:3] G8 | 
[V:4] z4G,4 | 
[V:1] B8 | 
[V:2] g4g4 | 
[V:3] z4g4 | 
[V:4] G,4G,4 | 
[V:1] z4e4- | 
[V:2] g4c4 | 
[V:3] g4g4 | 
[V:4] C,8 | 
[V:1] e4e4 | 
[V:2] c4z4 | 
[V:3] c8 | 
[V:4] C,6D,2 | 
[V:1] e4d4 | 
[V:2] G4A4 | 
[V:3] c4d4 | 
[V:4] E,4F,4 | 
[V:1] c4d4 | 
[V:2] G2c4B2 | 
[V:3] e4f4 | 
[V:4] E,4D,4 | 
[V:1] e4f4 | 
[V:2] c4z4 | 
[V:3] e4d4 | 
[V:4] C,2C4B,2 | 
[V:1] e2c4BA | 
[V:2] z4g4 | 
[V:3] c8 | 
[V:4] C2A,4G,F, | 
[V:1] G2A4GF | 
[V:2] z4f4 | 
[V:3] c4z4 | 
[V:4] E,2F,4E,D, | 
[V:1] E8 | 
[V:2] g4g4 | 
[V:3] z4g4 | 
[V:4] C,8- | 
[V:1] z4G4 | 
[V:2] c4c4 | 
[V:3] g4g4 | 
[V:4] C,8- | 
[V:1] G4G4 | 
[V:2] z8 | 
[V:3] c8 | 
[V:4] C,8 | 
[V:1] C2c2B2e2- | 
[V:2] z8 | 
[V:3] c4g4 | 
[V:4] z4z2C2- | 
[V:1] e2d2e2d2- | 
[V:2] z8 | 
[V:3] g6f2 | 
[V:4] C2B,2C2D2 | 
[V:1] dcc4B2 | 
[V:2] z4g4 | 
[V:3] g2c2d4 | 
[V:4] G,2A,2G,4 | 
[V:1] c4A4 | 
[V:2] g2g2c2f2 | 
[V:3] c8 | 
[V:4] z4A,4 | 
[V:1] z4A4 | 
[V:2] e2a3ge2 | 
[V:3] c8 | 
[V:4] A,4A,4 | 
[V:1] A4A4 | 
[V:2] f2d3cA2 | 
[V:3] z8 | 
[V:4] D,8 | 
[V:1] D2F2E2A2- | 
[V:2] B2A2c4 | 
[V:3] z8 | 
[V:4] D,4A,4 | 
[V:1] AGFEF2E2- | 
[V:2] F4z4 | 
[V:3] z8 | 
[V:4] A,6G,2 | 
[V:1] EDD3B,^C2 | 
[V:2] f4g4 | 
[V:3] z8 | 
[V:4] F,2D,2E,4 | 
[V:1] D8 | 
[V:2] f3ga2_b2- | 
[V:3] z8 | 
[V:4] D,4D,2D2- | 
[V:1] z4d4 | 
[V:2] b2a4g2 | 
[V:3] z8 | 
[V:4] D2C2_B,4 | 
[V:1] c3de2f2- | 
[V:2] a4a4 | 
[V:3] z8 | 
[V:4] A,3B,C2D2- | 
[V:1] f2e2f4- | 
[V:2] a4a4 | 
[V:3] z8 | 
[V:4] D2C2D4- | 
[V:1] f2e2d2cB | 
[V:2] d8 | 
[V:3] z8 | 
[V:4] D2C2B,2A,G, | 
[V:1] A6c2- | 
[V:2] d4a4 | 
[V:3] z8 | 
[V:4] F,3E,F,G,A,2- | 
[V:1] cdf3ee2- | 
[V:2] a6g2 | 
[V:3] z8 | 
[V:4] A,G,F,E,D,2E,2 | 
[V:1] edd4^c2 | 
[V:2] f4e4 | 
[V:3] z8 | 
[V:4] F,2D,2A,4 | 
[V:1] d8 | 
[V:2] d4d2d2 | 
[V:3] z8 | 
[V:4] D,4z4 | 
[V:1] z4d4 | 
[V:2] d2d2G4 | 
[V:3] z8 | 
[V:4] D4D2D2 | 
[V:1] d2d2G4 | 
[V:2] G2G2d2d2 | 
[V:3] d4d2d2 | 
[V:4] G,4G,2G,2 | 
[V:1] G2G2d2d2 | 
[V:2] d2d2G4 | 
[V:3] G4G2G2 | 
[V:4] D2D2D2D2 | 
[V:1] d2d2G4 | 
[V:2] G4d4 | 
[V:3] d2d2d2d2 | 
[V:4] G,4G,4 | 
[V:1] G4d4 | 
[V:2] d2d2G4 | 
[V:3] G4G4 | 
[V:4] D4D2D2 | 
[V:1] d2d2G4 | 
[V:2] G2g4g2 | 
[V:3] d4d2d2 | 
[V:4] G,4G,4 | 
[V:1] z2d2d2d2 | 
[V:2] g4d4 | 
[V:3] G8 | 
[V:4] z4G,4 | 
[V:1] G2d3cd2- | 
[V:2] e2d3ef2 | 
[V:3] G4A4 | 
[V:4] E,2G,2D,4 | 
[V:1] dcBAG2A2- | 
[V:2] d2g4f2- | 
[V:3] B4c4 | 
[V:4] G,4E,2F,2- | 
[V:1] AG^FEF3E | 
[V:2] fedcd4 | 
[V:3] A4A4 | 
[V:4] F,G,A,2D,4 | 
[V:1] G8- | 
[V:2] d8- | 
[V:3] G8 | 
[V:4] G,8- & D8- | 
[V:1] G8 |]  
[V:2] d8 |]  
[V:3] G8 |]  
[V:4] G,8 & D8 |]  



